src/assets/figure.svg

<svg width="42" height="42" viewBox="0 0 42 42" fill="none" xmlns="http://www.w3.org/2000/svg">
<path d="M41.1397 10.8946C39.8196 9.9318 38.9 8.45163 38.5588 7.12474C37.712 4.222 35.1937 2.07627 32.1385 1.65797L31.4493 1.56313C30.05 1.36829 28.6242 1.56543 27.3303 2.13261C26.0365 2.69978 24.9253 3.61477 24.1204 4.77579L21.5234 8.64639C15.2776 3.65043 11.3807 7.54559 6.49736 1.23373C4.91982 -0.806145 1.68683 -0.210017 0.918806 2.25494C0.141923 4.73097 -0.0908876 7.34561 0.236306 9.91994C0.262002 10.1239 0.333754 10.3193 0.44613 10.4913C0.558507 10.6634 0.708562 10.8077 0.884935 10.9132C5.40163 13.5958 10.3908 14.8499 15.6188 14.0073C15.7998 13.9782 15.9847 13.9861 16.1625 14.0306C16.3403 14.075 16.5073 14.1551 16.6532 14.2659C16.7992 14.3767 16.9212 14.516 17.0118 14.6753C17.1024 14.8346 17.1597 15.0107 17.1803 15.1928C17.2156 15.5438 17.1149 15.8949 16.8988 16.1738C16.6828 16.4527 16.368 16.638 16.0193 16.6916C11.744 17.3749 7.39917 16.8482 3.16784 15.0937C3.03654 15.0383 2.89108 15.0256 2.75218 15.0576C2.61328 15.0896 2.48802 15.1646 2.39421 15.2719C2.3004 15.3792 2.24283 15.5134 2.2297 15.6553C2.21657 15.7973 2.24854 15.9397 2.32106 16.0624C4.24494 19.3403 7.30941 21.829 11.4213 23.0305L4.65731 32.7515C4.06675 33.6071 3.80427 34.6469 3.91795 35.6803C4.03163 36.7137 4.51387 37.6715 5.27631 38.3783C5.37079 38.4659 5.48282 38.5323 5.60496 38.5732C5.7271 38.6141 5.85654 38.6286 5.98469 38.6156C6.11284 38.6026 6.23677 38.5625 6.34822 38.4979C6.45968 38.4334 6.55613 38.3458 6.63115 38.2411L11.8761 30.9716C11.9834 30.8228 12.1198 30.6974 12.277 30.603C12.4342 30.5085 12.6089 30.4469 12.7906 30.422C12.9723 30.397 13.1572 30.4093 13.334 30.4579C13.5109 30.5065 13.676 30.5905 13.8194 30.7049C14.391 31.1587 14.4782 31.9962 14.0514 32.5881L8.58127 40.1701C8.50508 40.2753 8.45235 40.3956 8.42663 40.5228C8.40091 40.6501 8.40281 40.7815 8.43218 40.908C8.46156 41.0345 8.51774 41.1532 8.59692 41.2561C8.6761 41.359 8.77645 41.4438 8.89119 41.5046C9.80243 41.984 10.8553 42.1208 11.8588 41.8902C12.8623 41.6596 13.7499 41.077 14.3605 40.248L17.7239 35.683C17.9526 35.3695 18.2698 35.1315 18.6348 34.9994C18.9998 34.8674 19.3958 34.8475 19.7722 34.9421C29.1663 37.3224 37.5494 28.1976 34.1386 19.7366C33.49 18.1277 34.1022 15.4943 35.8161 15.1581L40.3954 14.2563C40.7539 14.1857 41.084 14.0121 41.3454 13.7568C41.6068 13.5015 41.7881 13.1756 41.867 12.8189C41.946 12.4621 41.9193 12.0901 41.7901 11.7483C41.6609 11.4066 41.4349 11.1099 41.1397 10.8946ZM31.1148 10.2561C30.8468 10.2561 30.5849 10.1767 30.3621 10.0278C30.1393 9.87891 29.9656 9.66731 29.8631 9.41975C29.7605 9.17218 29.7337 8.89977 29.786 8.63696C29.8382 8.37414 29.9673 8.13273 30.1568 7.94326C30.3462 7.75378 30.5876 7.62474 30.8505 7.57247C31.1133 7.52019 31.3857 7.54702 31.6333 7.64956C31.8808 7.75211 32.0924 7.92576 32.2413 8.14856C32.3902 8.37137 32.4696 8.63331 32.4696 8.90127C32.4696 9.2606 32.3269 9.60521 32.0728 9.85929C31.8187 10.1134 31.4741 10.2561 31.1148 10.2561Z" fill="white"/>
</svg>

<svg width="42" height="42" fill="none" xmlns="http://www.w3.org/2000/svg"><path d="M41.14 10.895c-1.32-.963-2.24-2.443-2.581-3.77-.847-2.903-3.365-5.049-6.42-5.467l-.69-.095a7.636 7.636 0 0 0-7.329 3.213l-2.597 3.87c-6.245-4.996-10.142-1.1-15.026-7.412C4.92-.806 1.687-.21.92 2.254A18.016 18.016 0 0 0 .236 9.92a1.354 1.354 0 0 0 .649.993c4.517 2.683 9.506 3.937 14.734 3.094a1.354 1.354 0 0 1 1.561 1.186 1.377 1.377 0 0 1-1.16 1.499c-4.276.683-8.62.156-12.852-1.598a.678.678 0 0 0-.847.968c1.924 3.278 4.988 5.767 9.1 6.968l-6.764 9.721a4.324 4.324 0 0 0 .62 5.627.907.907 0 0 0 1.354-.137l5.245-7.27a1.353 1.353 0 0 1 1.943-.266c.572.454.66 1.291.232 1.883l-5.47 7.582a.908.908 0 0 0 .31 1.335 4.304 4.304 0 0 0 5.47-1.257l3.363-4.565a1.948 1.948 0 0 1 2.048-.74c9.394 2.38 17.777-6.745 14.367-15.206-.649-1.61-.037-4.243 1.677-4.579l4.58-.902a1.88 1.88 0 0 0 .744-3.361Zm-10.025-.639a1.354 1.354 0 1 1 0-2.709 1.354 1.354 0 0 1 0 2.71Z" fill="#fff"/></svg>
